paymentMethods/ethereum.svg

<svg width="128" height="64" viewBox="0 0 128 64" fill="none" xmlns="http://www.w3.org/2000/svg">
<rect width="128" height="64" rx="6" fill="white"/>
<path d="M38.8867 34.192C38.8867 34.2919 38.847 34.3877 38.7764 34.4583C38.7058 34.5289 38.61 34.5686 38.5101 34.5686H31.3806C31.5614 36.3274 32.8871 37.9582 34.7702 37.9582C35.3482 37.9847 35.923 37.8596 36.4376 37.5953C36.9523 37.331 37.3889 36.9368 37.7041 36.4517C37.7365 36.3971 37.7821 36.3516 37.8367 36.3193C37.8914 36.287 37.9533 36.2691 38.0167 36.2672C38.1077 36.2661 38.1955 36.3005 38.2616 36.3631C38.3277 36.4256 38.3668 36.5115 38.3707 36.6024V36.6024C38.3707 36.6676 38.3524 36.7315 38.318 36.7869C37.5949 38.0335 36.1675 38.6437 34.7702 38.6437C32.3636 38.6474 30.6387 36.5195 30.6387 34.2108C30.6387 31.9021 32.3636 29.778 34.7514 29.778C37.1392 29.778 38.8943 31.9021 38.8943 34.192H38.8867ZM38.1335 33.8568C37.9828 32.098 36.627 30.4672 34.7439 30.4672C32.8608 30.4672 31.5539 32.0791 31.3543 33.8568H38.1335Z" fill="#3B3B3B"/>
<path d="M47.5453 29.9475C47.6374 29.9529 47.7244 29.9919 47.7897 30.0571C47.8549 30.1224 47.8939 30.2094 47.8993 30.3015C47.9008 30.347 47.8934 30.3924 47.8773 30.435C47.8613 30.4776 47.837 30.5166 47.8059 30.5499C47.7748 30.5831 47.7374 30.6099 47.6959 30.6286C47.6544 30.6474 47.6096 30.6578 47.5641 30.6593H45.6321V38.1654C45.6321 38.2593 45.5948 38.3493 45.5284 38.4157C45.462 38.4821 45.3719 38.5194 45.278 38.5194C45.1859 38.514 45.0989 38.475 45.0337 38.4098C44.9684 38.3445 44.9294 38.2575 44.924 38.1654V30.6593H43.0861C42.9951 30.6604 42.9073 30.626 42.8412 30.5634C42.7751 30.5008 42.736 30.415 42.7321 30.3241V30.3015C42.7374 30.2094 42.7765 30.1224 42.8417 30.0571C42.907 29.9919 42.9939 29.9529 43.0861 29.9475H44.924V27.2094C44.9231 27.118 44.9555 27.0294 45.0151 26.9601C45.0747 26.8909 45.1574 26.8456 45.2479 26.8328C45.3375 26.8243 45.4269 26.8509 45.4972 26.9072C45.5675 26.9634 45.6132 27.0448 45.6245 27.1341C45.6263 27.1516 45.6263 27.1693 45.6245 27.1868V29.9475H47.5453Z" fill="#3B3B3B"/>
<path d="M59.198 33.578V38.1238C59.1926 38.216 59.1536 38.3029 59.0883 38.3682C59.0231 38.4334 58.9361 38.4725 58.844 38.4778C58.7527 38.4799 58.6643 38.4458 58.598 38.383C58.5317 38.3203 58.4929 38.2339 58.4899 38.1426V33.578C58.4899 32.0413 57.6199 30.516 55.9138 30.516C53.7219 30.516 52.7766 32.4293 52.9009 34.3952C52.9009 34.448 52.9235 34.6739 52.9235 34.7078V38.0975C52.9244 38.1888 52.892 38.2774 52.8324 38.3467C52.7728 38.416 52.6901 38.4613 52.5996 38.4741C52.5078 38.4803 52.4168 38.4527 52.344 38.3965C52.2711 38.3403 52.2214 38.2594 52.2041 38.169V23.1907C52.2095 23.0986 52.2485 23.0116 52.3138 22.9463C52.379 22.8811 52.466 22.8421 52.5581 22.8367C52.6503 22.8421 52.7372 22.8811 52.8025 22.9463C52.8678 23.0116 52.9068 23.0986 52.9122 23.1907V31.6233C53.1987 31.0766 53.6273 30.6174 54.1529 30.2939C54.6785 29.9705 55.2817 29.7948 55.8988 29.7854C58.0079 29.7967 59.198 31.6233 59.198 33.578Z" fill="#3B3B3B"/>
<path d="M71.9919 34.192C71.9919 34.2918 71.9522 34.3876 71.8816 34.4583C71.811 34.5289 71.7152 34.5686 71.6153 34.5686H64.482C64.6666 36.3274 65.9885 37.9582 67.8716 37.9582C68.449 37.9844 69.0232 37.8591 69.5372 37.5948C70.0512 37.3306 70.4871 36.9365 70.8018 36.4517C70.8341 36.3971 70.8797 36.3515 70.9344 36.3193C70.989 36.287 71.0509 36.2691 71.1144 36.2672C71.2056 36.2651 71.294 36.2992 71.3603 36.362C71.4266 36.4247 71.4654 36.5111 71.4684 36.6024V36.6024C71.4683 36.6676 71.4501 36.7315 71.4157 36.7869C70.6963 38.0335 69.2689 38.6436 67.8716 38.6436C65.4763 38.6436 63.7589 36.4969 63.7589 34.207C63.7589 31.9172 65.465 29.7742 67.8716 29.7742C70.2783 29.7742 71.9957 31.8983 72.0145 34.1882L71.9919 34.192ZM71.2161 33.8568C71.0692 32.0979 69.7096 30.4672 67.8453 30.4672C65.981 30.4672 64.6553 32.0791 64.4557 33.8568H71.2161Z" fill="#3B3B3B"/>
<path d="M80.7446 30.2825C80.7452 30.375 80.7118 30.4646 80.6507 30.534C80.5896 30.6035 80.505 30.648 80.4131 30.6591C78.3191 30.9717 77.3738 32.6816 77.3738 34.6664V38.056C77.3747 38.1474 77.3423 38.236 77.2827 38.3053C77.2231 38.3746 77.1404 38.4199 77.0499 38.4327C77.0041 38.439 76.9575 38.4362 76.9128 38.4245C76.8681 38.4128 76.8262 38.3923 76.7894 38.3643C76.7527 38.3363 76.7218 38.3013 76.6987 38.2613C76.6755 38.2213 76.6605 38.1772 76.6544 38.1314C76.6544 38.1314 76.6544 38.0975 76.6544 38.0786V30.3352C76.6535 30.2439 76.6859 30.1553 76.7455 30.086C76.8051 30.0167 76.8878 29.9714 76.9783 29.9586C77.0241 29.9523 77.0707 29.955 77.1154 29.9668C77.1601 29.9785 77.202 29.9989 77.2388 30.0269C77.2755 30.055 77.3064 30.09 77.3296 30.1299C77.3527 30.1699 77.3678 30.2141 77.3738 30.2599C77.3738 30.2599 77.3738 30.2976 77.3738 30.3127V31.8907C77.9613 30.8927 79.1326 29.9473 80.3566 29.9473C80.4517 29.9439 80.5445 29.9766 80.6164 30.0387C80.6884 30.1009 80.7342 30.188 80.7446 30.2825Z" fill="#3B3B3B"/>
<path d="M92.4539 34.192C92.4539 34.2918 92.4142 34.3876 92.3436 34.4583C92.273 34.5289 92.1772 34.5686 92.0773 34.5686H84.944C85.1286 36.3274 86.4505 37.9582 88.3337 37.9582C88.911 37.9844 89.4852 37.8591 89.9992 37.5948C90.5132 37.3306 90.9491 36.9365 91.2638 36.4517C91.2961 36.3971 91.3417 36.3515 91.3964 36.3193C91.451 36.287 91.513 36.2691 91.5764 36.2672C91.6677 36.2651 91.756 36.2992 91.8223 36.362C91.8886 36.4247 91.9275 36.5111 91.9304 36.6024V36.6024C91.9304 36.6676 91.9121 36.7315 91.8777 36.7869C91.1583 38.0335 89.7272 38.6436 88.3337 38.6436C85.9383 38.6436 84.2172 36.4969 84.2172 34.207C84.2172 31.9172 85.927 29.7742 88.3337 29.7742C90.7403 29.7742 92.4765 31.8983 92.4765 34.1882L92.4539 34.192ZM91.7007 33.8568C91.55 32.0979 90.1942 30.4672 88.3111 30.4672C86.4279 30.4672 85.1211 32.0791 84.9215 33.8568H91.7007Z" fill="#3B3B3B"/>
<path d="M103.967 30.3691V38.1652C103.962 38.2574 103.923 38.3443 103.858 38.4096C103.792 38.4749 103.705 38.5139 103.613 38.5193C103.568 38.5213 103.522 38.5141 103.48 38.4982C103.437 38.4824 103.398 38.4581 103.365 38.4268C103.332 38.3955 103.306 38.3579 103.288 38.3162C103.269 38.2745 103.26 38.2296 103.259 38.1841V36.6813C102.668 37.8526 101.625 38.7038 100.291 38.7038C98.1786 38.7038 97.0073 36.8659 97.0073 34.9376V30.3578C97.0073 30.2639 97.0446 30.1739 97.111 30.1075C97.1774 30.0411 97.2675 30.0038 97.3614 30.0038C97.4535 30.0092 97.5404 30.0482 97.6057 30.1135C97.671 30.1787 97.71 30.2657 97.7154 30.3578V34.9225C97.7154 36.4591 98.5854 37.9807 100.291 37.9807C102.687 37.9807 103.259 35.7209 103.259 33.2578V30.3465C103.259 30.2981 103.269 30.2501 103.288 30.2056C103.307 30.1611 103.336 30.121 103.371 30.0879C103.406 30.0547 103.448 30.0291 103.493 30.0127C103.539 29.9963 103.588 29.9894 103.636 29.9925C103.676 29.9868 103.716 29.9868 103.756 29.9925C103.824 30.0281 103.88 30.0826 103.918 30.1495C103.955 30.2164 103.972 30.2927 103.967 30.3691V30.3691Z" fill="#3B3B3B"/>
<path d="M122 33.5479V38.1126C121.995 38.2047 121.956 38.2917 121.89 38.3569C121.825 38.4222 121.738 38.4612 121.646 38.4666C121.555 38.4686 121.466 38.4346 121.4 38.3718C121.334 38.3091 121.295 38.2227 121.292 38.1314V33.5479C121.292 32.0113 120.422 30.5086 118.712 30.5086C116.565 30.5086 115.748 32.806 115.748 34.5874V38.1126C115.743 38.2047 115.704 38.2917 115.638 38.3569C115.573 38.4222 115.486 38.4612 115.394 38.4666C115.303 38.4686 115.214 38.4346 115.148 38.3718C115.082 38.3091 115.043 38.2227 115.04 38.1314V33.5479C115.04 32.0113 114.17 30.5086 112.464 30.5086C110.291 30.5086 109.402 32.2147 109.477 34.4932C109.477 34.546 109.496 34.6439 109.477 34.674V38.1013C109.478 38.1927 109.446 38.2813 109.386 38.3506C109.327 38.4199 109.244 38.4651 109.153 38.4779C109.061 38.4897 108.968 38.4647 108.894 38.4084C108.82 38.352 108.771 38.2687 108.758 38.1766V30.3353C108.757 30.2445 108.789 30.1563 108.848 30.0871C108.906 30.0179 108.988 29.9723 109.078 29.9587C109.124 29.9523 109.17 29.9551 109.215 29.9668C109.26 29.9786 109.302 29.999 109.339 30.027C109.375 30.055 109.406 30.09 109.429 30.13C109.452 30.17 109.468 30.2142 109.474 30.26C109.475 30.2775 109.475 30.2952 109.474 30.3127V31.6234C109.761 31.0794 110.191 30.6234 110.716 30.3038C111.242 29.9842 111.845 29.8129 112.46 29.808C113.142 29.8106 113.805 30.0314 114.351 30.4381C114.898 30.8447 115.301 31.4158 115.5 32.0678C116.087 30.7345 117.24 29.808 118.708 29.808C120.802 29.808 121.996 31.6234 121.996 33.5743L122 33.5479Z" fill="#3B3B3B"/>
<path opacity="0.6" d="M14.9147 28.2338L6 32.2675L14.9147 37.5402L23.8406 32.2675L14.9147 28.2338Z" fill="black"/>
<path opacity="0.45" d="M6 32.2674L14.9147 37.5401V17.4661L6 32.2674Z" fill="black"/>
<path opacity="0.8" d="M14.9147 17.4661V37.5439L23.8406 32.2711L14.9147 17.4661Z" fill="black"/>
<path opacity="0.45" d="M6 33.9659L14.9147 46.5339V39.2274L6 33.9659Z" fill="black"/>
<path opacity="0.8" d="M14.9147 39.2274V46.5339L23.8406 33.9659L14.9147 39.2274Z" fill="black"/>
</svg>

<svg xmlns="http://www.w3.org/2000/svg" width="128" height="64" fill="none"><rect width="128" height="64" fill="#fff" rx="6"/><path fill="#3B3B3B" d="M38.887 34.192a.377.377 0 0 1-.377.377h-7.13c.181 1.758 1.507 3.39 3.39 3.39a3.317 3.317 0 0 0 2.934-1.507.378.378 0 0 1 .313-.185.35.35 0 0 1 .354.335.35.35 0 0 1-.053.185c-.723 1.246-2.15 1.857-3.548 1.857-2.406.003-4.131-2.124-4.131-4.433 0-2.309 1.725-4.433 4.112-4.433 2.388 0 4.143 2.124 4.143 4.414h-.007Zm-.754-.335c-.15-1.759-1.506-3.39-3.39-3.39-1.882 0-3.19 1.612-3.389 3.39h6.78ZM47.545 29.948a.377.377 0 0 1 .354.354.345.345 0 0 1-.335.357h-1.932v7.506a.354.354 0 0 1-.354.354.377.377 0 0 1-.354-.354V30.66h-1.838a.35.35 0 0 1-.354-.335v-.023a.377.377 0 0 1 .354-.353h1.838v-2.739a.377.377 0 0 1 .324-.376.346.346 0 0 1 .377.301.258.258 0 0 1 0 .053v2.76h1.92ZM59.198 33.578v4.546a.377.377 0 0 1-.354.354.346.346 0 0 1-.354-.335v-4.565c0-1.537-.87-3.062-2.576-3.062-2.192 0-3.137 1.913-3.013 3.88 0 .052.022.278.022.312v3.39a.377.377 0 0 1-.323.376.377.377 0 0 1-.396-.305V23.191a.377.377 0 0 1 .354-.354.377.377 0 0 1 .354.354v8.432a3.431 3.431 0 0 1 2.987-1.838c2.109.012 3.299 1.838 3.299 3.793ZM71.992 34.192a.377.377 0 0 1-.377.377h-7.133c.185 1.758 1.507 3.39 3.39 3.39a3.314 3.314 0 0 0 2.93-1.507.375.375 0 0 1 .312-.185.346.346 0 0 1 .354.335.35.35 0 0 1-.052.185c-.72 1.246-2.147 1.857-3.544 1.857-2.396 0-4.113-2.147-4.113-4.437 0-2.29 1.706-4.433 4.113-4.433 2.406 0 4.124 2.124 4.142 4.414l-.022.004Zm-.776-.335c-.147-1.76-1.506-3.39-3.37-3.39-1.865 0-3.19 1.612-3.39 3.39h6.76ZM80.745 30.282a.377.377 0 0 1-.332.377c-2.094.313-3.04 2.023-3.04 4.007v3.39a.377.377 0 0 1-.323.377.352.352 0 0 1-.396-.302V30.335a.377.377 0 0 1 .324-.376.35.35 0 0 1 .396.3V31.892c.587-.998 1.759-1.944 2.983-1.944a.377.377 0 0 1 .388.335ZM92.454 34.192a.377.377 0 0 1-.377.377h-7.133c.185 1.758 1.507 3.39 3.39 3.39a3.314 3.314 0 0 0 2.93-1.507.375.375 0 0 1 .312-.185.346.346 0 0 1 .354.335.35.35 0 0 1-.052.185c-.72 1.246-2.15 1.857-3.544 1.857-2.396 0-4.117-2.147-4.117-4.437 0-2.29 1.71-4.433 4.117-4.433 2.406 0 4.142 2.124 4.142 4.414l-.022.004Zm-.753-.335c-.151-1.76-1.507-3.39-3.39-3.39-1.883 0-3.19 1.612-3.39 3.39h6.78ZM103.967 30.37v7.795a.375.375 0 0 1-.354.354.336.336 0 0 1-.325-.203.335.335 0 0 1-.029-.132v-1.503c-.591 1.172-1.634 2.023-2.968 2.023-2.112 0-3.284-1.838-3.284-3.766v-4.58a.354.354 0 0 1 .354-.354.377.377 0 0 1 .354.354v4.564c0 1.537.87 3.059 2.576 3.059 2.396 0 2.968-2.26 2.968-4.723v-2.912a.36.36 0 0 1 .112-.258.354.354 0 0 1 .265-.096.423.423 0 0 1 .12 0 .4.4 0 0 1 .162.157.4.4 0 0 1 .049.22ZM122 33.548v4.565a.375.375 0 0 1-.354.354.347.347 0 0 1-.354-.336v-4.583c0-1.537-.87-3.04-2.58-3.04-2.147 0-2.964 2.298-2.964 4.08v3.525a.375.375 0 0 1-.354.354.347.347 0 0 1-.354-.336v-4.583c0-1.537-.87-3.04-2.576-3.04-2.173 0-3.062 1.707-2.987 3.985 0 .053.019.15 0 .181v3.427a.374.374 0 0 1-.324.377.354.354 0 0 1-.395-.301v-7.842a.376.376 0 0 1 .32-.376.35.35 0 0 1 .396.301.463.463 0 0 1 0 .053v1.31a3.408 3.408 0 0 1 2.986-1.815 3.192 3.192 0 0 1 3.04 2.26c.587-1.333 1.74-2.26 3.208-2.26 2.094 0 3.288 1.815 3.288 3.766l.004-.026Z"/><path fill="#000" d="M14.915 28.234 6 32.267l8.915 5.273 8.926-5.273-8.926-4.033Z" opacity=".6"/><path fill="#000" d="m6 32.267 8.915 5.273V17.466L6 32.267Z" opacity=".45"/><path fill="#000" d="M14.915 17.466v20.078l8.926-5.273-8.926-14.805Z" opacity=".8"/><path fill="#000" d="m6 33.966 8.915 12.568v-7.307L6 33.966Z" opacity=".45"/><path fill="#000" d="M14.915 39.227v7.307l8.926-12.568-8.926 5.261Z" opacity=".8"/></svg>
